X: 0
T: Morag Nighean Domhnull Duinn
T: Morag, Daughter of Donald Dunn, or Lord McDonald's
C: Sir Alexander Macdonald
O: Scotland
R: reel
M: 4/4
L: 1/8
K: Gmaj
|:B|d3 e dBgB|dBgB aAAB|d^cde dBgB|(A/B/c) BA BG G:|
B|DGBG AGBG|DGBG AGAB|DGBG AGBG|DEDC B,G,G,G|
DGBG AGBG|DGBG AGEc|BAGF GFED|EFGA BGG:|
B|d3 e dBgB|dBgB aAAB|d^cde dBgB|(A/B/c) BA BG G:|
g|(dg)bg (ag)bg|(dg)bg (ag)eg|(dg)bg (ag)bg|d>edc BGGg|
(dg)bg (ag)bg|(dg)bg (ag)eg|(ba).g.f (gf).e.d|efga bgg2|| 